X:151
T:Rambling Pitchfork
S:Conal O'Grada
L:1/8
R:Jig
M:6/8
K:D
F3 AFF | =cFF AFF | G3 ABc | ded cBA |
F3 AFF | =cFF AFF | G3 BAB | GED D3 :|
|: d2e f3 | edA AFA | d3e f3 | faf ged |
d2e f3 | edA AFD | G3 BAB | GED D3 :|

